tools/download-figma-icons/icons/outlined-medium/coupon.svg

<svg width="24" height="24" viewBox="0 0 24 24" fill="none" xmlns="http://www.w3.org/2000/svg">
<path d="M12.615 24C12.0375 24 11.46 23.7825 11.025 23.34L0.66 12.975C0.2325 12.5475 0 11.985 0 11.385V2.25C0 1.0125 1.0125 0 2.25 0H11.385C11.985 0 12.5475 0.2325 12.975 0.66L23.34 11.025C24.2175 11.9025 24.2175 13.3275 23.34 14.205L14.205 23.34C13.7625 23.7825 13.1925 24 12.615 24ZM2.25 1.5C1.8375 1.5 1.5 1.8375 1.5 2.25V11.385C1.5 11.58 1.5825 11.775 1.7175 11.9175L12.0825 22.2825C12.375 22.575 12.8475 22.575 13.14 22.2825L22.275 13.1475C22.5675 12.855 22.5675 12.3825 22.275 12.09L11.9175 1.7175C11.775 1.575 11.5875 1.5 11.385 1.5H2.25Z" fill="black"/>
<path d="M6.375 9C4.9275 9 3.75 7.8225 3.75 6.375C3.75 4.9275 4.9275 3.75 6.375 3.75C7.8225 3.75 9 4.9275 9 6.375C9 7.8225 7.8225 9 6.375 9ZM6.375 5.25C5.7525 5.25 5.25 5.7525 5.25 6.375C5.25 6.9975 5.7525 7.5 6.375 7.5C6.9975 7.5 7.5 6.9975 7.5 6.375C7.5 5.7525 6.9975 5.25 6.375 5.25Z" fill="black"/>
<path d="M11.2499 17.2502C11.0549 17.2502 10.8674 17.1752 10.7174 17.0327C10.4249 16.7402 10.4249 16.2677 10.7174 15.9752L15.9674 10.7252C16.2599 10.4327 16.7324 10.4327 17.0249 10.7252C17.3174 11.0177 17.3174 11.4902 17.0249 11.7827L11.7749 17.0327C11.6249 17.1827 11.4374 17.2502 11.2424 17.2502H11.2499Z" fill="black"/>
</svg>

<svg width="24" height="24" viewBox="0 0 24 24" fill="none" xmlns="http://www.w3.org/2000/svg"><path d="M12.615 24a2.219 2.219 0 0 1-1.59-.66L.66 12.975a2.23 2.23 0 0 1-.66-1.59V2.25A2.257 2.257 0 0 1 2.25 0h9.135c.6 0 1.162.233 1.59.66L23.34 11.025a2.25 2.25 0 0 1 0 3.18l-9.135 9.135a2.231 2.231 0 0 1-1.59.66ZM2.25 1.5a.752.752 0 0 0-.75.75v9.135c0 .195.083.39.218.533l10.364 10.364a.747.747 0 0 0 1.058 0l9.135-9.134a.747.747 0 0 0 0-1.058L11.918 1.717a.742.742 0 0 0-.533-.217H2.25Z" fill="currentColor"/><path d="M6.375 9A2.628 2.628 0 0 1 3.75 6.375 2.628 2.628 0 0 1 6.375 3.75 2.628 2.628 0 0 1 9 6.375 2.628 2.628 0 0 1 6.375 9Zm0-3.75a1.124 1.124 0 1 0-.002 2.248 1.124 1.124 0 0 0 .002-2.248Zm4.875 12a.747.747 0 0 1-.533-1.275l5.25-5.25a.747.747 0 1 1 1.058 1.058l-5.25 5.25a.736.736 0 0 1-.533.217h.008Z" fill="currentColor"/></svg>
